!!!COM: Corelli, Arcangelo
!!!OTL: 
!!!ONM: Opus 6, No. 8
!!!OMV: 1
!!!CDT: 1653/2/17/-1713/1/8/
!!!OCY: Italia
**kern	**kern	**kern	**kern	**kern	**kern	**kern
*clefC	*clefG	*clefG	*clefG	*clefC	*clefG	*clefG
*k[b-]	*k[b-]	*k[b-]	*k[b-]	*k[b-]	*k[b-]	*k[b-]
*d:	*d:	*d:	*d:	*d:	*d:	*d:
*M3/4	*M3/4	*M3/4	*M3/4	*M3/4	*M3/4	*M3/4
=1	=1	=1	=1	=1	=1	=1
4GG	4d	4d	4b-	4GG	4d	4b-
2r	2r	2r	2r	2r	2r	2r
=2	=2	=2	=2	=2	=2	=2
4AA	4c	4f#	4cc	4AA	4f#	4cc
2r	2r	2r	2r	2r	2r	2r
=3	=3	=3	=3	=3	=3	=3
4BB-	4B-	4g	4dd	4BB-	4g	4dd
4BB	4G	4f	4dd	4BB	4f	4dd
8r	8r	8r	8r	8r	8r	8r
8BB	8G	8f	8dd	8BB	8f	8dd
=4	=4	=4	=4	=4	=4	=4
4C	2G	2e-	4dd	4C	2e-	4dd
4CC	.	.	4g	4CC	.	4g
4C	4g	4ee-	4cc	4c	4ee-	4cc
=5	=5	=5	=5	=5	=5	=5
2F#	2a	2dd	2cc	2F#	2dd	2cc
[4G	[4g	[4d	[4b-	[4G	[4d	[4b-
=6	=6	=6	=6	=6	=6	=6
4G]	4g]	4d]	4b-]	4G]	4d]	4b-]
2E-	2G	2g	2cc	2E-	2g	2cc
=7	=7	=7	=7	=7	=7	=7
2.D	2.A	2.f#	2.dd	2.D	2.f#	2.dd
==	==	==	==	==	==	==
*-	*-	*-	*-	*-	*-	*-
!!!RWG: This file only contains pitch and duration data.
!!!RWG: Transposing instruments are not transposed.
!!!RWG: Durations of rests and tied notes may be interpreted.
!!!RWG: Key is interpreted using the Humdrum key tool.
!!!SCA: 
!!!YOR: Chrysander Edition
!!!AGN: concerto grosso
!!!AFT: stage1
!!!ENC: F. Bennion
!!!END: 1997/04/15
!!!AST: baroque
!!!YEC: Copyright 1994, Center for Computer Assisted Research in the Humanities
!!!YEM: Rights to all derivative electronic formats reserved.
!!!YEM: Refer to licensing agreement for further details.
!!!YEN: United States of America
!!!EED: W.B. Hewlett
!!!KEY: 3774657424
!!!EMD: Converted from MuseData to Humdrum Aug 9, 1999, by Bret Aarden using muse2kern.
!!!VTS: 4114992247
